X:1
T:8. Вальс
T:8. Waltz Children's Album
T:П.И. Чайковский
C:П.И. Чайковский
%%score { ( 1 4 ) | ( 2 3 ) }
L:1/8
M:3/4
K:Eb
V:1 treble nm="Piano" snm="Pno."
V:4 treble 
V:2 bass 
V:3 bass 
V:1
 z6 | z2 (!>!!1!G3 A | B) z (!>!!1!c3 d | f) z (!>!!3!e3 c | B6) | z2 (!>!c3 !2!G | B4 A2) | %7
 z2 (!>!!4!B3 F | A4 G2) | z2 (!>!G3 A | B) z (!>!c3 d | f) z (!>!e3 c | B6) | z2 (!>!=A3 G | %14
 d4 ^F2) | z2 (!>!=E3 ^F) | (!>!^F4 G2) | z2!mf! (!>!!1!B3 !4!g | a) z (!>!!2!c3 d | %19
 e) z (!1!G!4!c).!1!G.!3!c | .d z (!2!A!5!d).A.d | .!3!B z (!>!!1!B3 g | a) z (!>!!2!c3 d | %23
 e) z (!3!e!2!d).!3!c.B | .=A z (!4!f!3!e).!2!d.!1!c | .!2!B z!mf! (!>!!1!B3 !4!g | %26
 a) z (!>!!2!c3 d | e) z (!1!G!4!c).!1!G.!3!c | .d z (!2!A!5!d).A.d | .!3!B z (!>!!1!B3 g | %30
 a) z (!>!!2!c3 d | e) z (!1!GA!3!B=B | !5!c) z (=Bc^cd | !5!e) z!f! (!3!edef | %34
 g) z ((!>!!2!c2 e2)) | (!>!!2!=B2 !4!d2) ((!>!!2!A2 | =B2)) (!>!!1!F2 !4!A2) | %37
 !3!!2![EG] z (edef | g) z ((!>!c2 e2)) | (!>!=B2 d2) ((!>!A2 | =B2)) (!>!B4 | c) z!f! (!3!edef | %42
 g) z ((!>!!2!c2 e2)) | (!>!!2!=B2 !4!d2) ((!>!!2!A2 | =B2)) (!>!!1!F2 !4!A2) | %45
 !3!!2![EG] z (edef | g) z ((!>!c2 e2)) | (!>!=B2 d2) ((!>!A2 | =B2)) (!>!B4 | %49
 c) z (!3!G^F!1!G!3!=B | c) z"^dim"!>(! (!3!G^F!1!G!3!=B | c) z (!3!G^F!1!G!3!=B | %52
 c) z!>)!!p! (!>!!1!G3 A | B) z (!>!!1!c3 d | f) z (!>!!3!e3 c | B6) | z2 (!>!c3 !2!G | B4 A2) | %58
 z2 (!>!!4!B3 F | A4 G2) | z2 (!>!G3 A | B) z (!>!c3 d | f) z (!>!e3 c | B6) | z2 (!>!=A3 G | %65
 d4 ^F2) | z2 (!>!=E3 ^F) | (!>!^F4 G2) | z2!mf! (!>!!1!B3 !4!g | a) z (!>!!2!c3 d | %70
 e) z (!1!G!4!c).!1!G.!3!c | .d z (!2!A!5!d).A.d | .!3!B z (!>!!1!B3 g | a) z (!>!!2!c3 d | %74
 e) z (!3!e!2!d).!3!c.B | .=A z (!4!f!3!e).!2!d.!1!c | .!2!B z!mf! (!>!!1!B3 !4!g | %77
 a) z (!>!!2!c3 d | e) z (!1!G!4!c).!1!G.!3!c | .d z (!2!A!5!d).A.d | .!3!B z (!>!!1!B3 g | %81
 a) z (!>!!2!c3 d | e) z (!1!GA!3!B=B | !5!c) z (!1!=Bc^cd | !5!e) z !fermata!z4 |] %85
V:2
!p! E,2 !3!!2!!1![G,B,E]2 [G,B,E]2 | E,2 [G,B,E]2 [G,B,E]2 | E,2 [G,B,E]2 [G,B,E]2 | %3
 E,2 !4!!2!!1![^F,=A,E]2 [F,A,E]2 | E,2 [G,B,E]2 [G,B,E]2 | C,2 !4!!2!!1![G,C=E]2 [G,CE]2 | %6
 F,2 !4!!2!!1![A,CF]2 [A,CF]2 | B,,2 !4!!2!!1![F,B,D]2 [F,B,D]2 | E,2 !3!!2!!1![G,B,E]2 [G,B,E]2 | %9
 E,2 [G,B,E]2 [G,B,E]2 | E,2 [G,B,E]2 [G,B,E]2 | E,2 [^F,=A,E]2 [F,A,E]2 | E,2 [G,B,E]2 [G,B,E]2 | %13
 E,2 [G,B,^C]2 [G,B,C]2 | D,2 [=A,=CD]2 [A,=CD]2 | D,2 [=A,CD]2 [A,CD]2 | %16
 !4!G,2 !1!!2![B,D]2 [B,D]2 | [B,D]2 z2 z2 | z2 [A,B,]2 [A,B,]2 | z2 [G,B,]2 [G,B,]2 | %20
 z2 [A,B,]2 [A,B,]2 | z2 [G,B,]2 [G,B,]2 | z2 [A,B,]2 [A,B,]2 | [E,G,B,] z z2 z2 | [F,CE] z z2 z2 | %25
 [B,D] z z2 z2 | z2 [A,B,]2 [A,B,]2 | z2 [G,B,]2 [G,B,]2 | z2 [A,B,]2 [A,B,]2 | %29
 z2 [G,B,]2 [G,B,]2 | z2 [A,B,]2 [A,B,]2 | [E,G,B,] z z2 z2 | [A,,C,F,] z z2 [_B,,F,A,] z | %33
 [E,G,B,] z [C,G,]2 [C,G,]2 | [C,G,]2 [C,G,]2 [C,G,]2 | [C,G,]2 [C,G,]2 [C,G,]2 | %36
 [C,G,]2 [C,G,]2 [C,G,]2 | [C,G,]2 [C,G,]2 [C,G,]2 | [C,G,]2 [C,G,]2 [C,G,]2 | %39
 [C,G,]2 [C,G,]2 [C,G,]2 | [C,G,]2 [C,G,]2 [C,G,]2 | [C,G,]2 [C,G,]2 [C,G,]2 | %42
 [C,G,]2 [C,G,]2 [C,G,]2 | [C,G,]2 [C,G,]2 [C,G,]2 | [C,G,]2 [C,G,]2 [C,G,]2 | %45
 [C,G,]2 [C,G,]2 [C,G,]2 | [C,G,]2 [C,G,]2 [C,G,]2 | [C,G,]2 [C,G,]2 [C,G,]2 | %48
 [C,G,]2 [C,G,]2 [C,G,]2 | [C,G,] z z2 (!5!!1![G,D]2 | !3!!2![CE]) z z2 (!5!!1![G,D]2 | %51
 !3!!2![CE]) z z2 (!5!!1![G,D]2 | !3!!2![CE]) z z4 | E,2 [G,B,E]2 [G,B,E]2 | %54
 E,2 !4!!2!!1![^F,=A,E]2 [F,A,E]2 | E,2 [G,B,E]2 [G,B,E]2 | C,2 !4!!2!!1![G,C=E]2 [G,CE]2 | %57
 F,2 !4!!2!!1![A,CF]2 [A,CF]2 | B,,2 !4!!2!!1![F,B,D]2 [F,B,D]2 | E,2 !3!!2!!1![G,B,E]2 [G,B,E]2 | %60
 E,2 [G,B,E]2 [G,B,E]2 | E,2 [G,B,E]2 [G,B,E]2 | E,2 [^F,=A,E]2 [F,A,E]2 | E,2 [G,B,E]2 [G,B,E]2 | %64
 E,2 [G,B,^C]2 [G,B,C]2 | D,2 [=A,=CD]2 [A,=CD]2 | D,2 [=A,CD]2 [A,CD]2 | G,2 [B,D]2 [B,D]2 | %68
 [B,D]2 z2 z2 | z2 [A,B,]2 [A,B,]2 | z2 [G,B,]2 [G,B,]2 | z2 [A,B,]2 [A,B,]2 | z2 [G,B,]2 [G,B,]2 | %73
 z2 [A,B,]2 [A,B,]2 | [E,G,B,] z z2 z2 | [F,CE] z z2 z2 | [B,D] z z2 z2 | z2 [A,B,]2 [A,B,]2 | %78
 z2 [G,B,]2 [G,B,]2 | z2 [A,B,]2 [A,B,]2 | z2 [G,B,]2 [G,B,]2 | z2 [A,B,]2 [A,B,]2 | %82
 [E,G,B,] z z2 z2 | [A,,C,F,] z z2 [_B,,F,A,] z | [E,G,B,] z !fermata!z4 |] %85
V:3
 x6 | x6 | x6 | x6 | x6 | x6 | x6 | x6 | x6 | x6 | x6 | x6 | x6 | x6 | x6 | x6 | x6 | x6 | !3!F,6 | %19
 E,6 | !5!B,,6 | !4!E,6 | !3!F,6 | x6 | x6 | x6 | !3!F,6 | E,6 | !5!B,,6 | !4!E,6 | !3!F,6 | x6 | %32
 x6 | x6 | x6 | x6 | x6 | x6 | x6 | x6 | x6 | x6 | x6 | x6 | x6 | x6 | x6 | x6 | x6 | x6 | x6 | %51
 x6 | x6 | x6 | x6 | x6 | x6 | x6 | x6 | x6 | x6 | x6 | x6 | x6 | x6 | x6 | x6 | x6 | x6 | !3!F,6 | %70
 E,6 | !5!B,,6 | !4!E,6 | !3!F,6 | x6 | x6 | x6 | !3!F,6 | E,6 | !5!B,,6 | !4!E,6 | !3!F,6 | x6 | %83
 x6 | x6 |] %85
V:4
 x6 | x6 | x6 | x6 | x6 | x6 | x6 | x6 | x6 | x6 | x6 | x6 | x6 | x6 | x6 | x6 | x6 | x6 | x6 | %19
 x6 | x6 | x6 | x6 | x6 | x6 | x6 | x6 | x6 | x6 | x6 | x6 | x6 | x6 | x6 | x2 c4 | =B4 A2 | %36
 A2 F4 | x6 | x2 c4 | =B4 A2 | A2 (G3 F | E) x5 | x2 c4 | =B4 A2 | A2 F4 | x6 | x2 c4 | =B4 A2 | %48
 A2 (G3 F | E) x5 | x6 | x6 | x6 | x6 | x6 | x6 | x6 | x6 | x6 | x6 | x6 | x6 | x6 | x6 | x6 | x6 | %66
 x6 | x6 | x6 | x6 | x6 | x6 | x6 | x6 | x6 | x6 | x6 | x6 | x6 | x6 | x6 | x6 | x6 | x6 | x6 |] %85

